X:81
T:Playford simple chords 1
M:3/4
L:1/8
K:Bb
D2 [G2G,2B,2D2] B4 | G2 [^F2D,2F,2A,2C2] | d4 D2 | [G2G,2B,2D2] B4 | G2 [^F2D,2F,2A,2C2] A4 |
D2 [G2G,2B,2D2] | B4 G2 | [^F2D,2F,2A,2] g4 | c2 [B4G4B4D4] |
A4 [G6G,6B,6D6] | D2 | [G2G,2B,2D2] B4 | G2 [^F2D,2F,2A,2C2] d4 |
D2 [G2G,2B,2D2] | B4 G2 | [^F2D,2F,2A,2C2] A4 | D2 [G2G,2B,2D2] B4 |
G2 [^F2D,2F,2A,2] | g4 c2 | [B4G4B4D4] A4 | [G6G,6B,6D6] |
d2 [d2G,2B,2D2] | g4 d2 | [g2G,2B,2D2] b4 | d2 [c2F,2A,2C2] f4 |
c2 [f2F,2A,2C2] | a4 c2 | [B2E,2G,2B,2] e4 | dc [d2G,2B,2D2] g4 |
c2 [B4G4B4D4] | A4 | [G6G,6B,6D6] | d2 [d2G,2B,2D2] g4 |
d2 [g2G,2B,2D2] | b4 d2 | [c2F,2A,2C2] f4 | c2 [f2F,2A,2C2] a4 |
c2 [B2E,2G,2B,2] | e4 dc | [d2G,2B,2D2] g4 | c2 [B4G4B4D4] |
A4 [G6G,6B,6D6] |


